X:1
T:Pazza per amor
T:Pazza per amor
T:Enrico Radesca di Foggia
T:Source : Canzonette, madrigale et arie---Libro I---Milano---Heredes S.Tini & F.Lomazzi---1606. Editor : André Vierendeels (13/03/14). 
T:Notes : Original clefs : C1, F4 Continuo slightly adapted
C:Enrico Radesca di Foggia
%%score [ 1 2 ] 3
L:1/8
Q:1/4=120
M:4/4
K:C
V:1 treble nm="Soprano" snm="S"
V:2 bass nm="Bass" snm="B"
V:3 bass nm="MusicXML Part"
V:1
 d8 | c3 B c2 d2 | B4 B2 B2 | A2 A2 G2 A2 | ^F2 F2 z2 AB | c8 | G3 A A4 | G4 z2 AB | c8 | G3 A A4 | %10
w: Paz-|za per a- mor|mi- o si|di- c'e poi so-|spi- ra, la mia|Li-|dia'e mi mi-|ra, la mia|Li-|dia'e mi mi-|
[M:2/4] G4 :: d4 |[M:4/4] c3 B c2 d2 | B4 B2 B2 | A2 A2 G4 | ^F2 F2 F2 G2 |"^-natural" A2 F2 E4 | %17
w: ra.|Paz-|zo mi di- co'an-|ch'i- o por|pe suo'a- mo-|re, e co' me-|i gaur- di|
 ^F4 z2 A2 | B2 ^c2 d2 B2 | A2 GG A2 B2 | c2 B2 A4 | G4 z2 B2 | d2 d2 c2 d2 | B2 B2 z2 B2 | %24
w: poi, ra-|dop- pio'i guar- di|suo- i, ra- dop- pio'i|guar- di suo-|i, e|son si dol- ci'all'-|ho- ra, e|
 A2 A2 G4 | ^F2 F2 F3 G |"^-natural" A2 F2 E4 | ^F8 | A2 A2 A2 AA | A2 A2 B2 B2 | c4 A4 | %31
w: son si pi-|e, le mie, le|sue paz- zi-|e,|che s'im- pia- ga mai|pett' un tal fu-|ro- re,|
[M:3/2] d8 G4 | A6 G2 A4 | G8 z4 | d8 G4 | A6 G2 A4 | B6 d2 c4 | G4 A8 |[M:4/4] G8 z4 :| %39
w: O che|dol- ce lan-|guir,|O che|dol- ce lan-|guir di paz-|z'a- mo-|re.|
V:2
 G,8 | A,3 G, A,2 ^F,2 | G,4 G,2 G,2 | F,2 F,2 E,2 C,2 | D,2 D,2 z2 D,G, | F,8 | E,3 C, D,4 | %7
w: Paz-|za per a- mor|mi- o si|di- c'e poi so-|spi- ra, la mia|Li-|dia'e mi mi-|
 G,,4 z2 D,G, | F,8 | E,3 C, D,4 |[M:2/4] G,,4 :: G,4 |[M:4/4] A,3 G, A,2 ^F,2 | G,4 G,2 G,2 | %14
w: ra, la mia|Li-|dia'e mi mi-|ra.|Paz-|zo mi di- co'an-|ch'i- o por|
 F,2 F,2 E,4 | D,2 D,2 D,2 E,2 | F,2 D,2 A,,4 | D,2 D,2 E,2 ^F,2 | G,2 E,2 D,2 G,,G, | %19
w: pe suo'a- mo-|re, e co' me-|i guar- di|poi, ra dop- pio'i|guar- di suo- i, ra-|
 F,2 E,2 D,2 C,B,, | A,,2 G,,2 D,4 | G,,4 z2 G,2 | G,2 G,2 A,2 ^F,2 | G,2 G,2 z2 G,2 | %24
w: dop- poi'i guar- * *|* di suo-|i, e|son si dol- ci'all'|ho- ra, e|
 F,2 F,2 E,4 | D,2 D,2 D,3 E, | F,2 D,2 A,,4 | D,8 | D,2 D,2 D,2 D,D, | D,2 D,2 G,2 G,2 | F,4 F,4 | %31
w: son si pi-|e, le mie le|sue paz- zi-|e,|che s'im- pia- ga mai|pett' un tal fu-|ro- re,|
[M:3/2] G,8 E,4 | D,6 E,2 D,4 | G,,8 z4 | G,8 E,4 | D,6 E,2 D,4 | G,,6 B,,2 C,4 | E,4 D,8 | %38
w: O che|dol- ce lan|guir,|O che|dol- ce lan-|guir di paz-|z'a- mo-|
[M:4/4] G,,8 x4 :| %39
w: re.|
V:3
 G,8 | A,3 G, A,2 ^F,2 | G,4 G,4 | F,4 E,2 C,2 | D,4 z2 D,G, | F,8 | E,3 C, D,4 | G,,4 z2 D,G, | %8
 F,8 | E,3 C, D,4 |[M:2/4] G,,4 :: G,4 |[M:4/4] A,3 G, A,2 ^F,2 | G,4 G,4 | F,4 E,4 | %15
 D,2 D,2 D,2 E,2 | F,2 D,2 A,,4 | D,2 D,2 E,2 ^F,2 | G,2 E,2 D,2 G,2 | F,2 E,2 D,2 C,B,, | %20
 A,,2 G,,2 D,4 | G,,4 z2 G,2 | G,4 A,2 ^F,2 | G,4 z2 G,2 | F,4 E,4 | D,2 D,2 D,3 E, | %26
 F,2 D,2 A,,4 | D,8 | D,4 D,4 | D,4 G,4 | F,4 F,4 |[M:3/2] G,8 E,4 | D,6 E,2 D,4 | G,,8 z4 | %34
 G,8 E,4 | D,6 E,2 D,4 | G,,6 B,,2 C,4 | E,4 D,8 |[M:4/4] G,,8 x4 :| %39

